X:1     %Music
T:Second Britford Carol
B: Wiltshire Folk Songs and Carols, W Matt and Sons, Bournemouth
Z:Rev Geoffry Hill and Walter Barnett
F:http://www.folkinfo.org/songs
M:4/4     %Meter
L:1/8     %
K:F
(cB) |A2 F2 F2 (cB) |A2 c2 c2 
w:A-*wake and join the_ cheer-ful choir 
f2 |d2 c2 B2 A2 | (A4G2)
w:Up-on the joy-ful morn_
 G2 |(F2d2) (c2B2) |A4 G4 |F6
w:Up-on_ this_ joy-ful morn. 
 (AB) | c2 c2 c2 (Ac) |d2 B2 B2
w:And_ glad Ho-san-na_ loud-ly sing
 d2 |c2 A2 (AG) F2 |G6 
w: For joy a Sav_ iour's born.  
E2 F2 A2 A2 (GF) |E2 G2 G2 
w:And glad Ho-san-na_ loud-ly sing
c2 |c2 (ce) (dc) =B2 |c4
w:For joy a_ Sa-*viour's born. 
 (c3A) | (FGABc2) B2 |A4 G4 |F6  |]
w:For_ joy____ a Sa-viour's born